public/icons/bridge/avalanche.svg

<svg width="14" height="14" viewBox="0 0 14 14" fill="none" xmlns="http://www.w3.org/2000/svg">
<path d="M11.3174 2.40137H2.67334V10.2577H11.3174V2.40137Z" fill="white"/>
<path fill-rule="evenodd" clip-rule="evenodd" d="M13.9956 6.99997C13.9956 10.8609 10.8637 13.9907 7.00023 13.9907C3.1368 13.9907 0.00488281 10.8609 0.00488281 6.99997C0.00488281 3.13912 3.1368 0.00927734 7.00023 0.00927734C10.8637 0.00927734 13.9956 3.13912 13.9956 6.99997ZM5.01794 9.78191H3.66035C3.37507 9.78191 3.23416 9.78191 3.14824 9.72699C3.05544 9.66686 2.99873 9.56726 2.99186 9.45732C2.9867 9.35605 3.05716 9.23236 3.19808 8.98506L6.55016 3.08048C6.69279 2.82975 6.76496 2.70438 6.85604 2.65801C6.954 2.60821 7.07086 2.60821 7.16881 2.65801C7.25989 2.70438 7.33207 2.82975 7.4747 3.08048L8.16382 4.28262L8.16733 4.28875C8.32139 4.55774 8.39951 4.69415 8.43362 4.83731C8.47142 4.99359 8.47142 5.15846 8.43362 5.31474C8.39925 5.45899 8.32192 5.59639 8.16553 5.86944L6.40476 8.97991L6.40021 8.98788C6.24514 9.25908 6.16655 9.39654 6.05763 9.50024C5.93906 9.61361 5.79642 9.69599 5.64004 9.74244C5.4974 9.78191 5.33759 9.78191 5.01794 9.78191ZM8.44633 9.78191H10.3916C10.6786 9.78191 10.823 9.78191 10.909 9.72532C11.0017 9.66518 11.0601 9.56381 11.0653 9.45397C11.0703 9.35595 11.0014 9.23708 10.8663 9.00416C10.8616 8.99623 10.857 8.98816 10.8522 8.97995L9.87782 7.31413L9.86673 7.29537C9.72981 7.06398 9.66069 6.94713 9.57192 6.90197C9.47402 6.85216 9.3588 6.85216 9.26089 6.90197C9.17153 6.94834 9.09936 7.07027 8.95672 7.31584L7.98578 8.98167L7.98245 8.9874C7.84032 9.23259 7.76928 9.35512 7.77441 9.45565C7.78128 9.56558 7.83799 9.66686 7.93078 9.72699C8.015 9.78191 8.15935 9.78191 8.44633 9.78191Z" fill="#E84142"/>
</svg>

<svg width="14" height="14" fill="none" xmlns="http://www.w3.org/2000/svg"><path d="M11.317 2.401H2.673v7.857h8.644V2.4Z" fill="#fff"/><path fill-rule="evenodd" clip-rule="evenodd" d="M13.996 7c0 3.86-3.132 6.99-6.996 6.99A6.993 6.993 0 0 1 .005 7C.005 3.14 3.137.01 7 .01A6.993 6.993 0 0 1 13.996 7ZM5.018 9.782H3.66c-.285 0-.426 0-.512-.055a.345.345 0 0 1-.156-.27c-.005-.101.065-.225.206-.472L6.55 3.08c.143-.25.215-.376.306-.422a.346.346 0 0 1 .313 0c.09.046.163.172.306.422l.689 1.203.003.006c.154.269.233.405.267.548a1.02 1.02 0 0 1 0 .478c-.035.144-.112.281-.268.554L6.405 8.98l-.005.009c-.155.271-.233.409-.342.512a1.025 1.025 0 0 1-.418.242c-.143.04-.302.04-.622.04Zm3.428 0h1.946c.287 0 .431 0 .517-.057a.344.344 0 0 0 .156-.271c.005-.098-.064-.217-.199-.45l-.014-.024-.974-1.666-.011-.019c-.137-.231-.206-.348-.295-.393a.342.342 0 0 0-.311 0c-.09.046-.162.168-.304.414l-.971 1.666-.004.005c-.142.246-.213.368-.208.469.007.11.064.21.157.271.084.055.228.055.515.055Z" fill="#E84142"/></svg>
